X: 32362
T: Pipe Major Jimmy McGregor
R: jig
M: 6/8
K: Bminor
|:e|dBB B2A|Bdd d2e|faf fed|fee efe|
dBB B2A|Bdd d2 e|faf edB|Add d2:|
|:f|aff fed|dee e2f|afa fef|dBB B2f|
aff fed|dee e2f|faf edB|Add d2:|
|:f|A2B dBd|ede ~f3|afa fef|dff edB|
A2B dBd|ede ~f3|faf edB|Add d2:|
|:f|Add df2|edd eff|Add dff|fed BAA|
Add dff|edd eff|faf edB|Add d2:|

